X:1
T:Banks of Earn, The
T:Banks of Earn, The
T:Alexander Walker
C:Alexander Walker
L:1/8
M:2/2
K:Gmin
V:1 treble 
V:1
 g | G/G/G (BG) dGBg | AFcF dFAF | G/G/G (BG) dGBc | dbaf (g2 g) :| a | bgdg Bgbg | afcf cfaf | %8
 bgdg BgdB | AdD^F (G2 G)g | bgdg dgbg | afcf Afaf | bagf edcB | AdD^F (G2 G) || %14

